svg/s/IN.svg

<svg width="16" height="12" viewBox="0 0 16 12" fill="none" xmlns="http://www.w3.org/2000/svg">
<g clip-path="url(#clip0_270_55020)">
<rect width="16" height="12" fill="white"/>
<path fill-rule="evenodd" clip-rule="evenodd" d="M0 0V12H16V0H0Z" fill="#F7FCFF"/>
<mask id="mask0_270_55020" style="mask-type:luminance" maskUnits="userSpaceOnUse" x="0" y="0" width="16" height="12">
<path fill-rule="evenodd" clip-rule="evenodd" d="M0 0V12H16V0H0Z" fill="white"/>
</mask>
<g mask="url(#mask0_270_55020)">
<path fill-rule="evenodd" clip-rule="evenodd" d="M0 0V4H16V0H0Z" fill="#FF8C1A"/>
<path fill-rule="evenodd" clip-rule="evenodd" d="M0 8V12H16V8H0Z" fill="#5EAA22"/>
<path fill-rule="evenodd" clip-rule="evenodd" d="M6 6C6 7.10457 6.89543 8 8 8C9.10457 8 10 7.10457 10 6C10 4.89543 9.10457 4 8 4C6.89543 4 6 4.89543 6 6ZM9.5 6C9.5 6.82843 8.82843 7.5 8 7.5C7.17157 7.5 6.5 6.82843 6.5 6C6.5 5.17157 7.17157 4.5 8 4.5C8.82843 4.5 9.5 5.17157 9.5 6Z" fill="#3D58DB"/>
<path fill-rule="evenodd" clip-rule="evenodd" d="M7.99722 6.43035L7.58025 7.96722L7.82443 6.39363L6.81841 7.62803L7.68151 6.28979L6.26039 7.00829L7.59318 6.1368L6.00269 6.21516L7.57472 5.96112L6.08986 5.38578L7.62931 5.79311L6.50683 4.66357L7.74751 5.66183L7.1815 4.17339L7.9089 5.58998L7.99722 4L8.08555 5.58998L8.81294 4.17339L8.24693 5.66183L9.48762 4.66357L8.36514 5.79311L9.90459 5.38578L8.41973 5.96112L9.99176 6.21516L8.40126 6.1368L9.73406 7.00829L8.31293 6.28979L9.17604 7.62803L8.17002 6.39363L8.41419 7.96722L7.99722 6.43035Z" fill="#3D58DB"/>
</g>
</g>
<defs>
<clipPath id="clip0_270_55020">
<rect width="16" height="12" fill="white"/>
</clipPath>
</defs>
</svg>

<svg width="16" height="12" fill="none" xmlns="http://www.w3.org/2000/svg">
  <mask id="a" maskUnits="userSpaceOnUse" x="0" y="0" width="16" height="12">
    <path fill="#fff" d="M0 0h16v12H0z"/>
  </mask>
  <g mask="url(#a)">
    <path fill-rule="evenodd" clip-rule="evenodd" d="M0 0v12h16V0H0z" fill="#F7FCFF"/>
    <mask id="b" maskUnits="userSpaceOnUse" x="0" y="0" width="16" height="12">
      <path fill-rule="evenodd" clip-rule="evenodd" d="M0 0v12h16V0H0z" fill="#fff"/>
    </mask>
    <g mask="url(#b)" fill-rule="evenodd" clip-rule="evenodd">
      <path d="M0 0v4h16V0H0z" fill="#FF8C1A"/>
      <path d="M0 8v4h16V8H0z" fill="#5EAA22"/>
      <path d="M6 6a2 2 0 104 0 2 2 0 00-4 0zm3.5 0a1.5 1.5 0 11-3 0 1.5 1.5 0 013 0z" fill="#3D58DB"/>
      <path d="M7.997 6.43L7.58 7.967l.244-1.573-1.006 1.234.864-1.338-1.422.718 1.333-.871-1.59.078 1.572-.254-1.485-.575 1.54.407-1.123-1.13 1.24.999-.566-1.489.728 1.417L7.997 4l.089 1.59.727-1.417-.566 1.489 1.24-.998-1.122 1.13 1.54-.408-1.485.575 1.572.254-1.59-.078 1.332.871-1.421-.718.863 1.338L8.17 6.394l.244 1.573-.417-1.537z" fill="#3D58DB"/>
    </g>
  </g>
</svg>
